public/files/perm/idevices/base/map/edition/exequextfull 1.svg

<svg fill="none" height="24" viewBox="0 0 25 24" width="25" xmlns="http://www.w3.org/2000/svg"><path d="m23 4.125v3.675c0 .58012-.4699 1.05-1.05 1.05s-1.05-.46988-1.05-1.05v-3.675c0-.46988-.0551-.525-.525-.525h-3.675c-.5801 0-1.05-.46988-1.05-1.05 0-.58013.4699-1.05 1.05-1.05h3.675c1.6196 0 2.625 1.00537 2.625 2.625zm-14.7-2.625h-3.675c-1.61963 0-2.625 1.00537-2.625 2.625v3.675c0 .58012.46987 1.05 1.05 1.05.58012 0 1.05-.46988 1.05-1.05v-3.675c0-.46988.05512-.525.525-.525h3.675c.58012 0 1.05-.46988 1.05-1.05 0-.58013-.46988-1.05-1.05-1.05zm0 18.9h-3.675c-.46988 0-.525-.0551-.525-.525v-3.675c0-.5801-.46988-1.05-1.05-1.05-.58013 0-1.05.4699-1.05 1.05v3.675c0 1.6196 1.00537 2.625 2.625 2.625h3.675c.58012 0 1.05-.4699 1.05-1.05s-.46988-1.05-1.05-1.05zm13.65-5.25c-.5801 0-1.05.4699-1.05 1.05v3.675c0 .4699-.0551.525-.525.525h-3.675c-.5801 0-1.05.4699-1.05 1.05s.4699 1.05 1.05 1.05h3.675c1.6196 0 2.625-1.0054 2.625-2.625v-3.675c0-.5801-.4699-1.05-1.05-1.05z" fill="#282573"/></svg>

<svg width="25" height="24" viewBox="0 0 25 24" fill="none" xmlns="http://www.w3.org/2000/svg">
<path d="M23 4.125V7.8C23 8.38012 22.5301 8.85 21.95 8.85C21.3699 8.85 20.9 8.38012 20.9 7.8V4.125C20.9 3.65512 20.8449 3.6 20.375 3.6H16.7C16.1199 3.6 15.65 3.13012 15.65 2.55C15.65 1.96987 16.1199 1.5 16.7 1.5H20.375C21.9946 1.5 23 2.50537 23 4.125ZM8.3 1.5H4.625C3.00537 1.5 2 2.50537 2 4.125V7.8C2 8.38012 2.46987 8.85 3.05 8.85C3.63012 8.85 4.1 8.38012 4.1 7.8V4.125C4.1 3.65512 4.15512 3.6 4.625 3.6H8.3C8.88012 3.6 9.35 3.13012 9.35 2.55C9.35 1.96987 8.88012 1.5 8.3 1.5ZM8.3 20.4H4.625C4.15512 20.4 4.1 20.3449 4.1 19.875V16.2C4.1 15.6199 3.63012 15.15 3.05 15.15C2.46987 15.15 2 15.6199 2 16.2V19.875C2 21.4946 3.00537 22.5 4.625 22.5H8.3C8.88012 22.5 9.35 22.0301 9.35 21.45C9.35 20.8699 8.88012 20.4 8.3 20.4ZM21.95 15.15C21.3699 15.15 20.9 15.6199 20.9 16.2V19.875C20.9 20.3449 20.8449 20.4 20.375 20.4H16.7C16.1199 20.4 15.65 20.8699 15.65 21.45C15.65 22.0301 16.1199 22.5 16.7 22.5H20.375C21.9946 22.5 23 21.4946 23 19.875V16.2C23 15.6199 22.5301 15.15 21.95 15.15Z" fill="#282573"/>
</svg>
